lib/flags/l/CYP.svg

<svg xmlns="http://www.w3.org/2000/svg" fill="none" viewBox="0 0 32 24"><mask id="CYP_svg__a" width="32" height="24" x="0" y="0" mask-type="alpha" maskUnits="userSpaceOnUse"><path fill="#fff" d="M0 0H32V24H0z"/></mask><g mask="url(#CYP_svg__a)"><path fill="#F7FCFF" fill-rule="evenodd" d="M0 0V24H32V0H0Z" clip-rule="evenodd"/><mask id="CYP_svg__b" width="32" height="24" x="0" y="0" mask-type="alpha" maskUnits="userSpaceOnUse"><path fill="#fff" fill-rule="evenodd" d="M0 0V24H32V0H0Z" clip-rule="evenodd"/></mask><g fill-rule="evenodd" clip-rule="evenodd" mask="url(#CYP_svg__b)"><path fill="#006B49" d="M7.59966 14.3208C7.17155 14.0232 7.3641 13.3704 7.3641 13.3704C7.3641 13.3704 7.99963 13.7315 8.22243 13.8991C8.44522 14.0667 8.60592 14.7583 8.60592 14.7583C8.60592 14.7583 8.02776 14.6183 7.59966 14.3208ZM8.74381 15.2542C8.72222 15.0656 8.77508 14.897 8.77508 14.897C8.77508 14.897 9.31154 15.1837 9.4996 15.3167C9.68766 15.4498 9.82331 15.9987 9.82331 15.9987C9.82331 15.9987 9.33528 15.8876 8.97391 15.6514C8.84252 15.5655 8.78039 15.4424 8.75452 15.3204C8.64662 15.3535 8.37147 15.4252 8.08761 15.3979C7.72305 15.3628 7.46002 14.8513 7.46002 14.8513C7.46002 14.8513 7.95745 14.8493 8.1541 14.8761C8.30729 14.8969 8.6152 15.1454 8.74381 15.2542ZM10.4354 16.2301C10.4354 16.2301 10.474 16.7675 10.863 16.8773C11.252 16.9871 11.7063 16.94 11.7063 16.94C11.7063 16.94 11.4028 16.4663 11.1969 16.3996C10.991 16.333 10.4354 16.2301 10.4354 16.2301ZM12.7413 17.6687C12.3392 17.6281 12.2078 17.1056 12.2078 17.1056C12.2078 17.1056 12.7728 17.1104 12.9872 17.1403C13.2016 17.1701 13.5827 17.584 13.5827 17.584C13.5827 17.584 13.1435 17.7093 12.7413 17.6687ZM13.4554 16.7013C13.4554 16.7013 13.4009 17.3282 13.8049 17.5384C14.2089 17.7485 14.7122 17.7922 14.7122 17.7922C14.7122 17.7922 14.4667 17.1814 14.2544 17.0604C14.0421 16.9393 13.4554 16.7013 13.4554 16.7013ZM13.738 18.3021C13.2917 18.3931 12.9395 17.8715 12.9395 17.8715C12.9395 17.8715 13.5453 17.6873 13.7865 17.6478C14.0277 17.6083 14.6027 17.9284 14.6027 17.9284C14.6027 17.9284 14.1842 18.2112 13.738 18.3021ZM10.5114 17.1768C10.5114 17.1768 10.7228 17.6724 11.1264 17.6495C11.5299 17.6266 11.9441 17.4342 11.9441 17.4342C11.9441 17.4342 11.503 17.0851 11.2866 17.0891C11.0702 17.0931 10.5114 17.1768 10.5114 17.1768ZM11.683 16.6094C11.322 16.4274 11.3867 15.8925 11.3867 15.8925C11.3867 15.8925 11.9125 16.0994 12.1019 16.2042C12.2913 16.3089 12.4988 16.8318 12.4988 16.8318C12.4988 16.8318 12.0439 16.7914 11.683 16.6094ZM9.64967 14.6529C9.64967 14.6529 9.65055 15.3137 9.92219 15.5719C10.1938 15.8302 10.5197 15.9203 10.5197 15.9203C10.5197 15.9203 10.327 15.2506 10.1837 15.1036C10.0403 14.9566 9.64967 14.6529 9.64967 14.6529ZM8.65364 16.1128C8.65364 16.1128 9.0594 16.6411 9.47728 16.6139C9.89516 16.5868 10.2618 16.3784 10.2618 16.3784C10.2618 16.3784 9.66733 16.0081 9.44023 16.0138C9.21313 16.0196 8.65364 16.1128 8.65364 16.1128ZM8.75142 15.9926C8.52919 16.013 8.32114 15.7361 8.32114 15.7361C8.32114 15.7361 8.61948 15.6784 8.74013 15.6722C8.86079 15.6659 9.17125 15.8556 9.17125 15.8556C9.17125 15.8556 8.97366 15.9723 8.75142 15.9926ZM8.93643 13.8545C8.93643 13.8545 8.69987 14.1074 8.7585 14.3228C8.81713 14.5381 8.96628 14.7124 8.96628 14.7124C8.96628 14.7124 9.09922 14.3737 9.07212 14.256C9.04501 14.1383 8.93643 13.8545 8.93643 13.8545ZM10.8953 16.0833C10.7577 16.0317 10.7896 15.8655 10.7896 15.8655C10.7896 15.8655 10.9907 15.9228 11.0628 15.9527C11.1349 15.9827 11.2086 16.1417 11.2086 16.1417C11.2086 16.1417 11.0329 16.135 10.8953 16.0833ZM10.1809 16.7242C10.1809 16.7242 10.149 16.8904 10.2866 16.9421C10.4242 16.9937 10.5999 17.0005 10.5999 17.0005C10.5999 17.0005 10.5262 16.8414 10.4541 16.8115C10.382 16.7815 10.1809 16.7242 10.1809 16.7242ZM12.8228 16.9421C12.6853 16.8904 12.7171 16.7242 12.7171 16.7242C12.7171 16.7242 12.9183 16.7815 12.9903 16.8115C13.0624 16.8414 13.1362 17.0005 13.1362 17.0005C13.1362 17.0005 12.9604 16.9937 12.8228 16.9421ZM12.2099 17.7738C12.2099 17.7738 12.178 17.94 12.3156 17.9917C12.4531 18.0433 12.6289 18.05 12.6289 18.05C12.6289 18.05 12.5552 17.891 12.4831 17.8611C12.411 17.8311 12.2099 17.7738 12.2099 17.7738ZM14.9307 18.9121L14.485 18.5409C14.7626 18.3804 15.0486 18.2526 15.2933 18.1567C15.226 18.1104 15.1651 18.0756 15.116 18.0587V17.9371C15.116 17.9371 15.2824 17.9803 15.5318 18.068C15.7811 17.9803 15.9476 17.9371 15.9476 17.9371V18.0587C15.8984 18.0756 15.8376 18.1104 15.7703 18.1567C16.0149 18.2526 16.3009 18.3804 16.5786 18.5409L16.1329 18.9121C16.1329 18.9121 15.8269 18.5931 15.5318 18.3425C15.2366 18.5931 14.9307 18.9121 14.9307 18.9121ZM23.6994 13.3704C23.6994 13.3704 23.892 14.0232 23.4639 14.3208C23.0358 14.6183 22.4576 14.7583 22.4576 14.7583C22.4576 14.7583 22.6183 14.0667 22.8411 13.8991C23.0639 13.7315 23.6994 13.3704 23.6994 13.3704ZM22.3197 15.2542C22.3413 15.0656 22.2885 14.897 22.2885 14.897C22.2885 14.897 21.752 15.1837 21.5639 15.3167C21.3759 15.4498 21.2402 15.9987 21.2402 15.9987C21.2402 15.9987 21.7283 15.8876 22.0896 15.6514C22.221 15.5655 22.2832 15.4424 22.309 15.3204C22.4169 15.3535 22.6921 15.4252 22.9759 15.3979C23.3405 15.3628 23.6035 14.8513 23.6035 14.8513C23.6035 14.8513 23.1061 14.8493 22.9094 14.8761C22.7563 14.8969 22.4483 15.1454 22.3197 15.2542ZM20.6281 16.2301C20.6281 16.2301 20.5895 16.7675 20.2005 16.8773C19.8115 16.9871 19.3573 16.94 19.3573 16.94C19.3573 16.94 19.6607 16.4663 19.8666 16.3996C20.0725 16.333 20.6281 16.2301 20.6281 16.2301ZM18.3222 17.6687C18.7244 17.6281 18.8557 17.1056 18.8557 17.1056C18.8557 17.1056 18.2907 17.1104 18.0763 17.1403C17.862 17.1701 17.4809 17.584 17.4809 17.584C17.4809 17.584 17.9201 17.7093 18.3222 17.6687ZM17.6081 16.7013C17.6081 16.7013 17.6626 17.3282 17.2586 17.5384C16.8546 17.7485 16.3514 17.7922 16.3514 17.7922C16.3514 17.7922 16.5968 17.1814 16.8091 17.0604C17.0214 16.9393 17.6081 16.7013 17.6081 16.7013ZM17.3256 18.3021C17.7718 18.3931 18.124 17.8715 18.124 17.8715C18.124 17.8715 17.5183 17.6873 17.2771 17.6478C17.0359 17.6083 16.4608 17.9284 16.4608 17.9284C16.4608 17.9284 16.8794 18.2112 17.3256 18.3021ZM20.5522 17.1768C20.5522 17.1768 20.3407 17.6724 19.9371 17.6495C19.5336 17.6266 19.1194 17.4342 19.1194 17.4342C19.1194 17.4342 19.5606 17.0851 19.777 17.0891C19.9934 17.0931 20.5522 17.1768 20.5522 17.1768ZM19.3806 16.6094C19.7415 16.4274 19.6769 15.8925 19.6769 15.8925C19.6769 15.8925 19.1511 16.0994 18.9617 16.2042C18.7723 16.3089 18.5648 16.8318 18.5648 16.8318C18.5648 16.8318 19.0197 16.7914 19.3806 16.6094ZM21.4139 14.6529C21.4139 14.6529 21.413 15.3137 21.1414 15.5719C20.8697 15.8302 20.5438 15.9203 20.5438 15.9203C20.5438 15.9203 20.7365 15.2506 20.8799 15.1036C21.0232 14.9566 21.4139 14.6529 21.4139 14.6529ZM22.4099 16.1128C22.4099 16.1128 22.0041 16.6411 21.5863 16.6139C21.1684 16.5868 20.8017 16.3784 20.8017 16.3784C20.8017 16.3784 21.3962 16.0081 21.6233 16.0138C21.8504 16.0196 22.4099 16.1128 22.4099 16.1128ZM22.3121 15.9926C22.5344 16.013 22.7424 15.7361 22.7424 15.7361C22.7424 15.7361 22.4441 15.6784 22.3234 15.6722C22.2028 15.6659 21.8923 15.8556 21.8923 15.8556C21.8923 15.8556 22.0899 15.9723 22.3121 15.9926ZM22.1271 13.8545C22.1271 13.8545 22.3637 14.1074 22.305 14.3228C22.2464 14.5381 22.0973 14.7124 22.0973 14.7124C22.0973 14.7124 21.9643 14.3737 21.9914 14.256C22.0185 14.1383 22.1271 13.8545 22.1271 13.8545ZM20.1683 16.0833C20.3058 16.0317 20.2739 15.8655 20.2739 15.8655C20.2739 15.8655 20.0728 15.9228 20.0007 15.9527C19.9287 15.9827 19.8549 16.1417 19.8549 16.1417C19.8549 16.1417 20.0307 16.135 20.1683 16.0833ZM20.8826 16.7242C20.8826 16.7242 20.9145 16.8904 20.7769 16.9421C20.6394 16.9937 20.4636 17.0005 20.4636 17.0005C20.4636 17.0005 20.5373 16.8414 20.6094 16.8115C20.6815 16.7815 20.8826 16.7242 20.8826 16.7242ZM18.2407 16.9421C18.3783 16.8904 18.3464 16.7242 18.3464 16.7242C18.3464 16.7242 18.1453 16.7815 18.0732 16.8115C18.0011 16.8414 17.9274 17.0005 17.9274 17.0005C17.9274 17.0005 18.1032 16.9937 18.2407 16.9421ZM18.8537 17.7738C18.8537 17.7738 18.8855 17.94 18.748 17.9917C18.6104 18.0433 18.4346 18.05 18.4346 18.05C18.4346 18.05 18.5084 17.891 18.5804 17.8611C18.6525 17.8311 18.8537 17.7738 18.8537 17.7738Z"/><path fill="#F57A01" d="M27.806 3.01709C27.806 3.01709 28.1522 3.46195 27.806 3.46195C27.4599 3.46195 26.5796 3.94329 26.5796 3.94329C26.5796 3.94329 26.1609 4.5682 25.6538 4.70958C25.1466 4.85097 24.9756 5.376 24.2333 5.59483C23.4909 5.81365 23.4151 5.8734 23.4151 6.09487C23.4151 6.31634 23.5416 6.69141 23.0347 6.69141C22.5278 6.69141 22.1695 5.98167 21.8952 6.69141C21.6209 7.40116 21.343 7.60922 21.723 8.0434C22.103 8.47759 22.6064 8.89334 22.8205 9.14409C23.0347 9.39484 24.4633 10.1287 23.4151 10.1287C22.3669 10.1287 22.8939 9.46444 22.087 9.70707C21.28 9.9497 21.7433 10.3076 21.1266 10.1287C20.5099 9.9497 20.0988 9.78643 19.9074 9.86807C19.7161 9.9497 19.4087 9.41445 19.4087 10.1287C19.4087 10.8429 19.9842 10.5534 18.7502 11.3423C17.5162 12.1312 17.7613 11.9132 17.1949 11.9132C16.6285 11.9132 16.4295 12.2703 16.0519 12.2703C15.6742 12.2703 15.7203 12.2703 15.295 12.2703C14.8696 12.2703 15.3253 11.8185 14.6 12.2703C13.8747 12.7221 13.6148 12.812 13.6148 12.9856C13.6148 13.1592 13.6148 13.6195 13.6148 13.6195C13.6148 13.6195 12.9503 13.9997 12.9503 13.6195C12.9503 13.2393 12.7454 13.142 12.4699 12.9856C12.1943 12.8293 11.6437 12.9418 11.0557 12.9856C10.4677 13.0294 9.80295 12.3925 9.2925 12.3925C8.78205 12.3925 8.68708 11.9132 8.54744 11.9132C8.40781 11.9132 8.69312 11.5036 8.09876 11.136C7.50441 10.7684 7.29637 10.7227 7.29637 10.1287C7.29637 9.53468 7.02344 9.37222 7.02344 9.01128C7.02344 8.65035 7.31428 9.14409 7.93086 9.14409C8.54744 9.14409 8.58789 8.76213 9.2925 8.40276C9.99711 8.0434 10.2362 7.84674 10.8237 8.0434C11.4113 8.24006 11.9895 8.97288 12.4699 8.26952C12.9503 7.56616 12.9503 6.76183 12.9503 6.35574C12.9503 5.94965 12.6662 5.83399 13.433 6.09487C14.1999 6.35574 14.6461 6.35574 15.9205 6.35574C17.1949 6.35574 18.7187 6.7725 19.1883 6.35574C19.6579 5.93898 20.1599 5.59483 21.3783 5.59483C22.5967 5.59483 22.9948 4.996 23.8141 4.70958C24.6334 4.42317 23.4252 5.02865 25.2629 4.2453C27.1007 3.46195 27.806 3.01709 27.806 3.01709Z"/></g></g></svg>

<svg xmlns="http://www.w3.org/2000/svg" fill="none" viewBox="0 0 32 24"><mask id="CYP_svg__a" width="32" height="24" x="0" y="0" maskUnits="userSpaceOnUse"><path fill="#fff" d="M0 0h32v24H0z"/></mask><g mask="url(#CYP_svg__a)"><path fill="#F7FCFF" fill-rule="evenodd" d="M0 0v24h32V0H0z" clip-rule="evenodd"/><mask id="CYP_svg__b" width="32" height="24" x="0" y="0" maskUnits="userSpaceOnUse"><path fill="#fff" fill-rule="evenodd" d="M0 0v24h32V0H0z" clip-rule="evenodd"/></mask><g fill-rule="evenodd" clip-rule="evenodd" mask="url(#CYP_svg__b)"><path fill="#006B49" d="M7.6 14.32c-.428-.297-.236-.95-.236-.95s.636.362.858.53c.223.167.384.858.384.858s-.578-.14-1.006-.437zm1.144.934c-.022-.188.031-.357.031-.357s.537.287.725.42c.188.133.323.682.323.682s-.488-.111-.85-.348a.506.506 0 01-.218-.33 1.821 1.821 0 01-.667.077c-.365-.035-.628-.547-.628-.547s.497-.002.694.025c.153.02.461.27.59.378zm1.691.976s.039.537.428.647c.389.11.843.063.843.063s-.303-.474-.51-.54a9.582 9.582 0 00-.76-.17zm2.306 1.439c-.402-.04-.533-.563-.533-.563s.565.004.78.034c.214.03.595.444.595.444s-.44.125-.842.085zm.714-.968s-.054.627.35.837c.404.21.907.254.907.254s-.245-.61-.458-.732c-.212-.12-.799-.359-.799-.359zm.283 1.601c-.446.091-.798-.43-.798-.43s.605-.185.847-.224c.24-.04.816.28.816.28s-.419.283-.865.374zm-3.227-1.125s.212.495.615.473c.404-.023.818-.216.818-.216s-.441-.349-.657-.345c-.217.004-.776.088-.776.088zm1.172-.568c-.361-.182-.296-.717-.296-.717s.525.207.715.312c.19.105.397.628.397.628s-.455-.04-.816-.223zM9.65 14.653s0 .66.272.919c.272.258.598.348.598.348s-.193-.67-.336-.816c-.144-.147-.534-.451-.534-.451zm-.996 1.46s.405.528.823.5c.418-.026.785-.235.785-.235s-.595-.37-.822-.364c-.227.006-.786.099-.786.099zm.097-.12c-.222.02-.43-.257-.43-.257s.298-.058.42-.064c.12-.006.43.184.43.184s-.197.116-.42.137zm.185-2.139s-.236.253-.178.469c.06.215.208.39.208.39s.133-.34.106-.457a4.685 4.685 0 00-.136-.402zm1.96 2.23c-.138-.052-.106-.218-.106-.218s.2.057.273.087c.072.03.146.189.146.189s-.176-.007-.314-.059zm-.715.64s-.032.166.106.218c.137.052.313.058.313.058s-.074-.159-.146-.189-.273-.087-.273-.087zm2.642.218c-.138-.052-.106-.218-.106-.218s.201.058.273.087c.072.03.146.19.146.19s-.176-.007-.313-.059zm-.613.832s-.032.166.106.218c.137.051.313.058.313.058s-.074-.159-.146-.189a3.966 3.966 0 00-.273-.087zm2.72 1.138l-.445-.371c.278-.16.564-.288.808-.384a.801.801 0 00-.177-.098v-.122s.166.043.416.131c.25-.088.416-.13.416-.13v.12a.8.8 0 00-.178.099c.245.096.53.223.809.384l-.446.371s-.306-.319-.601-.57c-.295.251-.601.57-.601.57zm8.77-5.542s.192.653-.236.95c-.428.298-1.006.438-1.006.438s.16-.691.383-.859c.223-.167.858-.529.858-.529zm-1.38 1.884c.021-.188-.032-.357-.032-.357s-.536.287-.724.42c-.188.133-.324.682-.324.682s.488-.111.85-.348a.506.506 0 00.219-.33c.108.033.383.104.667.077.364-.035.628-.547.628-.547s-.498-.002-.695.025c-.153.02-.46.27-.59.378zm-1.692.976s-.038.537-.427.647c-.39.11-.844.063-.844.063s.304-.474.51-.54c.206-.067.761-.17.761-.17zm-2.306 1.439c.402-.04.534-.563.534-.563s-.565.004-.78.034c-.214.03-.595.444-.595.444s.44.125.841.085zm-.714-.968s.055.627-.35.837c-.403.21-.907.254-.907.254s.246-.61.458-.732c.212-.12.8-.359.8-.359zm-.282 1.601c.446.091.798-.43.798-.43s-.606-.185-.847-.224c-.241-.04-.816.28-.816.28s.418.283.865.374zm3.226-1.125s-.211.495-.615.473c-.403-.023-.818-.216-.818-.216s.442-.349.658-.345c.216.004.775.088.775.088zm-1.171-.568c.36-.182.296-.717.296-.717s-.526.207-.715.312c-.19.105-.397.628-.397.628s.455-.04.816-.223zm2.033-1.956s-.001.66-.273.919c-.271.258-.597.348-.597.348s.192-.67.336-.816c.143-.147.534-.451.534-.451zm.996 1.46s-.406.528-.824.5c-.418-.026-.784-.235-.784-.235s.594-.37.821-.364c.227.006.787.099.787.099zm-.098-.12c.222.02.43-.257.43-.257s-.298-.058-.419-.064c-.12-.006-.43.184-.43.184s.197.116.42.137zm-.185-2.139s.237.253.178.469c-.059.215-.208.39-.208.39s-.133-.34-.106-.457c.027-.118.136-.402.136-.402zm-1.959 2.23c.138-.052.106-.218.106-.218s-.201.057-.273.087c-.072.03-.146.189-.146.189s.176-.007.313-.059zm.715.64s.032.166-.106.218c-.138.052-.313.058-.313.058s.073-.159.145-.189.274-.087.274-.087zm-2.642.218c.137-.052.105-.218.105-.218s-.2.058-.273.087c-.072.03-.146.19-.146.19s.176-.007.314-.059zm.613.832s.032.166-.106.218c-.138.051-.313.058-.313.058s.073-.159.145-.189c.073-.03.274-.087.274-.087z"/><path fill="#F57A01" d="M27.806 3.017s.346.445 0 .445-1.226.481-1.226.481-.42.625-.926.767c-.507.14-.678.666-1.42.885-.743.219-.819.278-.819.5 0 .221.127.596-.38.596s-.866-.71-1.14 0c-.274.71-.552.918-.172 1.352.38.435.883.85 1.098 1.101.214.25 1.642.985.594.985s-.521-.665-1.328-.422c-.807.243-.344.6-.96.422-.617-.18-1.028-.343-1.22-.261-.19.082-.498-.454-.498.26 0 .715.575.425-.659 1.214-1.234.79-.989.571-1.555.571-.567 0-.765.357-1.143.357h-.757c-.425 0 .03-.451-.695 0-.725.452-.985.542-.985.716v.633s-.665.38-.665 0-.205-.477-.48-.633c-.276-.157-.826-.044-1.414 0-.588.043-1.253-.594-1.763-.594s-.606-.479-.746-.479.146-.41-.448-.777c-.595-.368-.803-.413-.803-1.007 0-.594-.273-.757-.273-1.118 0-.36.291.133.908.133.616 0 .657-.382 1.362-.741.704-.36.943-.556 1.53-.36.588.197 1.166.93 1.647.226.48-.703.48-1.507.48-1.913 0-.406-.284-.522.483-.261.767.26 1.213.26 2.488.26 1.274 0 2.798.417 3.267 0 .47-.416.972-.76 2.19-.76 1.219 0 1.617-.6 2.436-.885.82-.287-.389.319 1.449-.465 1.838-.783 2.543-1.228 2.543-1.228z"/></g></g></svg>
